static/images/icons/card_sorting.svg

<svg
	fill="none"
	height="80"
	viewBox="0 0 80 80"
	width="80"
	xmlns="http://www.w3.org/2000/svg"
>
	<g fill="currentColor">
		<path
			d="m78.6829 38.9611h-37.8228v-37.64686c0-.470803-.387-.856003-.86-.856003s-.86.3852-.86.856003v37.64686h-37.82282c-.473005 0-.860005.3852-.860005.856s.387.856.860005.856h37.82282v37.6469c0 .4708.387.856.86.856s.86-.3852.86-.856v-37.6469h37.8228c.473 0 .86-.3852.86-.856s-.387-.856-.86-.856z"
		/>
		<path
			d="m76.06 3.89079h-15.3854v15.31381h15.3854zm-1.72 13.60181h-11.9454v-11.88981h11.9454z"
		/>
		<path
			d="m58.7998 3.89079h-15.394v15.31381h15.3854v-15.31381zm-1.72 13.60181h-11.954v-11.88981h11.9454v11.88981z"
		/>
		<path
			d="m76.06 21.0707h-15.3854v15.3139h15.3854zm-1.72 13.6104h-11.9454v-11.8984h11.9454z"
		/>
		<path
			d="m58.7998 21.0707h-15.394v15.3139h15.3854v-15.3139zm-1.72 13.6104h-11.954v-11.8984h11.9454v11.8984z"
		/>
		<path
			d="m36.56 21.0707h-15.394v15.3139h15.394zm-1.72 13.6104h-11.954v-11.8984h11.954z"
		/>
		<path
			d="m19.2914 21.0707h-15.38539v15.3139h15.38539zm-1.72 13.6104h-11.94539v-11.8984h11.94539z"
		/>
		<path
			d="m60.6746 58.5293h15.3854v-15.3224h-15.3854zm1.72-13.6104h11.9454v11.8898h-11.9454z"
		/>
		<path
			d="m43.4058 58.5293h15.3854v-15.3224h-15.3854zm1.72-13.6104h11.9454v11.8898h-11.9454z"
		/>
		<path
			d="m21.166 58.5293h15.394v-15.3224h-15.394zm1.72-13.6104h11.954v11.8898h-11.954z"
		/>
		<path
			d="m3.90601 58.5293h15.38539v-15.3224h-15.38539zm1.72-13.6104h11.94539v11.8898h-11.94539z"
		/>
		<path
			d="m21.166 75.7092h15.394v-15.3138h-15.394zm1.72-13.6018h11.954v11.8898h-11.954z"
		/>
	</g>
</svg>

<svg xmlns="http://www.w3.org/2000/svg" fill="currentColor" viewBox="0 0 80 80">
	<path d="M78.683 38.961H40.86V1.314a.86.86 0 00-1.72 0v37.647H1.317c-.473 0-.86.385-.86.856s.387.856.86.856H39.14V78.32a.86.86 0 001.72 0V40.673h37.823c.473 0 .86-.385.86-.856s-.387-.856-.86-.856zM76.06 3.89H60.675v15.315H76.06zm-1.72 13.603H62.395V5.603H74.34z"/>
	<path d="M58.8 3.89H43.406v15.315H58.79V3.89zm-1.72 13.603H45.126V5.603H57.07v11.89zM76.06 21.07H60.675v15.315H76.06zm-1.72 13.611H62.395V22.783H74.34zM58.8 21.07H43.406v15.315H58.79V21.07zm-1.72 13.611H45.126V22.783H57.07V34.68zM36.56 21.07H21.166v15.315H36.56zm-1.72 13.611H22.886V22.783H34.84zM19.291 21.07H3.906v15.315h15.385zm-1.72 13.611H5.626V22.783h11.945zM60.675 58.53H76.06V43.206H60.675zm1.72-13.611H74.34v11.89H62.395zM43.406 58.53H58.79V43.206H43.406zm1.72-13.611H57.07v11.89H45.126zM21.166 58.53H36.56V43.206H21.166zm1.72-13.611H34.84v11.89H22.886zM3.906 58.53h15.385V43.206H3.906zm1.72-13.611h11.945v11.89H5.626zM21.166 75.71H36.56V60.394H21.166zm1.72-13.603H34.84v11.89H22.886z"/>
</svg>
